X: 840
T:Rob Ruadh Macghriogair
T:Rob Roy Macgregor
S:Johnny Hardie/Gavin Marwick
Z:https://nigelgatherer.com/
N:Adapted for comparison
M:4/4
L:1/8
K:Em
B | G<E E2 E/F/G B,2 | E>FG>A B>AG>e 
  | G<E E2 E/F/G B,2 | E>FG>A B3     :|
A | G<dd>B d<Gd>c    | B<ee>f g>fe<f  |
    g<be<g B<gA<B    | E>FG>A B3     :|

